!!!!SEGMENT: pl-kk--kk-i-514--002_hofmann-leopold--motetto-recitativo.krn
!!!cenid: 17xx:1862
!!!COM: Hofmann, Leopold
!!!COM-rism: pe30001538
!!!CDT: 1738/08/14-1793/03/17
!!!CNT: Austrian
!!!OTL: Motetto – Recitativo
!!!PDT:
!!!AGN: Sacred; Motet
!!!SMS-siglum: PL-Kk
!!!SMS-shelfmark: Kk.I.514
!!!NIFC-rismID: 1001140197
!!!URL-scan: http://repozytorium.nifc.pl/skany/pl-kk-nut--i-514
!!!ONB-nifc: UWAGA: części Motetu: 1. Ad sponsum animae veloces, 2. Recitativo, 3. Veni o Jesu chare, 4. Alleluja
!!!SMS-variant:Violino Primo.:PL-KK-KK-I-514:13 Violino 2do.:PL-KK-KK-I-514:23
!!!SMS-altvar:Violino Primo:PL-KK-KK-I-514:18 Violino Secondo:PL-KK-KK-I-514:28
**kern	**fba	**dynam	**kern	**dynam	**kern	**dynam	**kern	**dynam	**kern	**dynam	**kern	**kern	**kern	**kern	**kern	**text	**kern	**kern	**kern
*part13	*part13	*part13	*part12	*part12	*part11	*part11	*part10	*part10	*part9	*part9	*part8	*part7	*part6	*part5	*part4	*part4	*part3	*part2	*part1
*staff13	*	*	*staff12	*	*staff11	*	*staff10	*	*staff9	*	*staff8	*staff7	*staff6	*staff5	*staff4	*staff4	*staff3	*staff2	*staff1
*I"organo.	*	*	*I"Violone	*	*I"Viola.	*	*I"Violino 2do.	*	*I"Violino Primo.	*	*I"Baſso Rip:no	*I"Tenore Rip:no	*I"Alto Rip:no	*I"Soprano Rip:no	*I"Soprano Con:to	*	*I"Tympano in D.	*I"Clarino Secondo. in D.	*I"Clarino Primo. in D.
*I'org	*	*	*I'vlne	*	*I'vla	*	*I'vl 2	*	*I'vl 1	*	*I'Coro B	*I'Coro T	*I'Coro A	*I'Coro S	*I'S	*	*I'timp	*I'clar 2	*I'clar 1
*group5	*	*	*group4	*	*group4	*	*group4	*	*group4	*	*group3	*group3	*group3	*group3	*group3	*	*group2	*group1	*group1
*clefF4	*	*	*clefF4	*	*clefC3	*	*clefG2	*	*clefG2	*	*clefF4	*clefC4	*clefC3	*clefG2	*clefC1	*	*clefF4	*clefG2	*clefG2
*	*	*	*ITrd0c0	*	*	*	*	*	*	*	*	*	*	*	*	*	*	*ITrd-1c-2	*ITrd-1c-2
*k[f#c#]	*	*	*k[f#c#]	*	*k[f#c#]	*	*k[f#c#]	*	*k[f#c#]	*	*k[f#c#]	*k[f#c#]	*k[f#c#]	*k[f#c#]	*k[f#c#]	*	*k[]	*k[f#c#]	*k[f#c#]
*D:	*	*	*D:	*	*D:	*	*D:	*	*D:	*	*D:	*D:	*D:	*D:	*D:	*	*	*	*
*M4/4	*	*	*M4/4	*	*M4/4	*	*M4/4	*	*M4/4	*	*M4/4	*M4/4	*M4/4	*M4/4	*M4/4	*	*M4/4	*M4/4	*M4/4
*met(c)	*	*	*met(c)	*	*met(c)	*	*met(c)	*	*met(c)	*	*met(c)	*met(c)	*met(c)	*met(c)	*met(c)	*	*met(c)	*met(c)	*met(c)
=1	=1	=1	=1	=1	=1	=1	=1	=1	=1	=1	=1	=1	=1	=1	=1	=1	=1	=1	=1
*	*	*	*	*	*	*	*	*	*2\right	*	*	*	*	*	*	*	*	*	*
!LO:TX:t=P:problem:all left, center or right	!	!	!LO:TX:t=P:problem:all\ left, center or right	!	!LO:TX:t=P:problem:all\ left, center or right	!	!LO:TX:t=P:problem:all left, center or right	!	!LO:TX:t=P:problem:all\ left, center or right	!	!	!	!	!	!LO:TX:t=P:problem:all\right	!	!	!	!LO:TX:t=P:problem:f=for:global
!LO:TX:a:t=Recit&colon;vo	!	!	!LO:TX:a:t=Recit&colon;vo	!	!LO:TX:a:t=Recit&colon;vo	!	!LO:TX:a:t=Recit&colon;vo	!	!LO:TX:a:t=Recit&colon;	!	!	!	!	!	!	!	!	!	!LO:TX:t=P:problem:p=p::global
!LO:TX:t=P:problem:powyżej partii pięciolinia z pomocniczo zapisaną partią Sopranu solo	!	!	!LO:TX:t=P:problem:powyżej partii pięciolinia z pomocniczo zapisaną partią Sopranu solo	!	!LO:TX:t=P:problem:powyżej partii pięciolinia z pomocniczo zapisaną partią Sopranu solo	!	!LO:TX:t=P:problem:powyżej partii pięciolinia z pomocniczo zapisaną partią Sopranu solo	!	!LO:TX:t=P:problem:powyżej partii pięciolinia z pomocniczo zapisaną partią Sopranu solo	!	!LO:TX:a:t=Aria, Recit&colon;vo et Aria Tacet.	!LO:TX:a:t=Aria, Recit&colon; et Aria Tacet.	!LO:TX:a:t=Aria, Recitvo et Aria Tacet.	!LO:TX:a:t=Aria, Recit&colon;vo et Aria Tacet .	!LO:TX:t=P:problem:poniżej partii pięciolinia z pomocniczo zapisaną partią organów	!	!LO:TX:a:t=Recit. et Aria Tacent.	!LO:TX:a:t=Recit. et Aria Tacet.	!LO:TX:a:t=Recit&colon; et Aria Tacent.
!	!	!LO:DY:b:t=p&colon;	!	!LO:DY:b:t=p.	!	!	!	!LO:DY:b:t=p&colon;	!	!LO:DY:b:t=p&colon;	!	!	!	!	!	!	!	!	!
[<1F#	.	p	[<1F#	p	[<1f#	.	[1a	p	[<1dd	p	1ryy	1ryy	1ryy	1ryy	4r	.	1ryy	1ryy	1ryy
.	.	.	.	.	.	.	.	.	.	.	.	.	.	.	4a\	Pru-	.	.	.
.	.	.	.	.	.	.	.	.	.	.	.	.	.	.	8dd\	-den-	.	.	.
.	.	.	.	.	.	.	.	.	.	.	.	.	.	.	8dd\	-tes	.	.	.
.	.	.	.	.	.	.	.	.	.	.	.	.	.	.	8dd\	hinc	.	.	.
.	.	.	.	.	.	.	.	.	.	.	.	.	.	.	8cc#\	fa-	.	.	.
=2	=2	=2	=2	=2	=2	=2	=2	=2	=2	=2	=2	=2	=2	=2	=2	=2	=2	=2	=2
4F#\]	.	.	4F#\]	.	4f#\]	.	4a/]	.	4dd\]	.	1ryy	1ryy	1ryy	1ryy	16ee\	-ta-	1ryy	1ryy	1ryy
.	.	.	.	.	.	.	.	.	.	.	.	.	.	.	16dd\	-gi-	.	.	.
.	.	.	.	.	.	.	.	.	.	.	.	.	.	.	8dd\	-te	.	.	.
!	!	!	!	!	!	!	!	!	!LO:TX:t=P:problem:mixed beam	!	!	!	!	!	!	!	!	!	!
!	!	!	!	!	!	!	!	!	!LO:TX:t=P:problem:klamra łukowa	!	!	!	!	!	!	!	!	!	!
4r	.	.	4r	.	4r	.	4r	.	24d/LL	.	.	.	.	.	4r	.	.	.	.
.	.	.	.	.	.	.	.	.	24aa\	.	.	.	.	.	.	.	.	.	.
.	.	.	.	.	.	.	.	.	24gg\	.	.	.	.	.	.	.	.	.	.
.	.	.	.	.	.	.	.	.	24ff#\	.	.	.	.	.	.	.	.	.	.
.	.	.	.	.	.	.	.	.	24ee\	.	.	.	.	.	.	.	.	.	.
.	.	.	.	.	.	.	.	.	24dd\JJ	.	.	.	.	.	.	.	.	.	.
*Xtuplet	*	*	*Xtuplet	*	*	*	*Xtuplet	*	*	*	*	*	*	*	*	*	*	*	*
!LO:LB:g=original	!	!	!LO:LB:g=original	!	!	!	!LO:TX:t=P:problem:brak oznaczenia sekstoli:global	!	!	!	!	!	!	!	!LO:PB:g=original	!	!	!	!
4r	.	.	4r	.	4r	.	24A/LL	.	8cc#\L	.	.	.	.	.	2r	.	.	.	.
.	.	.	.	.	.	.	24a/	.	.	.	.	.	.	.	.	.	.	.	.
!	!	!	!	!	!	!	!	!LO:DY:b:t=for	!	!	!	!	!	!	!	!	!	!	!
.	.	.	.	.	.	.	24g/	f	.	.	.	.	.	.	.	.	.	.	.
.	.	.	.	.	.	.	24f#/	.	(8dd\	.	.	.	.	.	.	.	.	.	.
.	.	.	.	.	.	.	24e/	.	.	.	.	.	.	.	.	.	.	.	.
.	.	.	.	.	.	.	24d/JJ	.	.	.	.	.	.	.	.	.	.	.	.
!LO:TX:t=P:problem:mixed beam	!	!	!LO:TX:t=P:problem:mixed beam	!	!	!	!	!	!	!	!	!	!	!	!	!	!	!	!
!LO:TX:t=P:problem:brak oznaczenia sekstoli, klamra łukowa	!	!	!LO:TX:t=P:problem:brak oznaczenia sekstoli	!	!	!	!	!	!	!	!	!	!	!	!	!	!	!	!
24AA/LL	.	.	24AA/LL	.	8A/L	.	8c#/L	.	8ee\	.	.	.	.	.	.	.	.	.	.
!	!	!	!	!LO:DY:b	!	!	!	!	!	!	!	!	!	!	!	!	!	!	!
24A\	.	.	24A\	f	.	.	.	.	.	.	.	.	.	.	.	.	.	.	.
24G\	.	.	24G\	.	.	.	.	.	.	.	.	.	.	.	.	.	.	.	.
24F#\	.	.	24F#\	.	8A/J	.	8d/J	.	8ff#\J)	.	.	.	.	.	.	.	.	.	.
24E\	.	.	24E\	.	.	.	.	.	.	.	.	.	.	.	.	.	.	.	.
24D\JJ	.	.	24D\JJ	.	.	.	.	.	.	.	.	.	.	.	.	.	.	.	.
!	!	!	!	!	!LO:PB:g=original	!	!LO:LB:g=original	!	!LO:LB:g=original	!	!	!	!	!	!	!	!	!	!
=3	=3	=3	=3	=3	=3	=3	=3	=3	=3	=3	=3	=3	=3	=3	=3	=3	=3	=3	=3
.	.	.	.	.	.	.	(8qe/	.	.	.	.	.	.	.	.	.	.	.	.
!	!	!	!	!LO:DY:b:t=p&colon;	!	!LO:DY:b:t=p&colon;	!	!LO:DY:b:t=p&colon;	!	!LO:DY:b:t=p&colon;	!	!	!	!	!	!	!	!	!
1C#X	6| 5	.	[1C#	p	[1A#X	p	[<1ee)	p	[1gg	p	1ryy	1ryy	1ryy	1ryy	8r	.	1ryy	1ryy	1ryy
.	.	.	.	.	.	.	.	.	.	.	.	.	.	.	8ee\	es-	.	.	.
.	.	.	.	.	.	.	.	.	.	.	.	.	.	.	8ee\	-to-	.	.	.
.	.	.	.	.	.	.	.	.	.	.	.	.	.	.	8ee\	-te	.	.	.
.	.	.	.	.	.	.	.	.	.	.	.	.	.	.	8dd\	ſo-	.	.	.
.	.	.	.	.	.	.	.	.	.	.	.	.	.	.	16cc#\	-bri-	.	.	.
.	.	.	.	.	.	.	.	.	.	.	.	.	.	.	16cc#\	-i,	.	.	.
.	.	.	.	.	.	.	.	.	.	.	.	.	.	.	8cc#\	vi-	.	.	.
.	.	.	.	.	.	.	.	.	.	.	.	.	.	.	8ee\	-gi-	.	.	.
!LO:LB:g=original	!	!	!LO:LB:g=original	!	!	!	!	!	!	!	!	!	!	!	!LO:LB:g=original	!	!	!	!
=4	=4	=4	=4	=4	=4	=4	=4	=4	=4	=4	=4	=4	=4	=4	=4	=4	=4	=4	=4
4C#/	.	.	4C#/]	.	4A#/]	.	4ee\]	.	4gg\]	.	1ryy	1ryy	1ryy	1ryy	8ee\	-la-	1ryy	1ryy	1ryy
.	.	.	.	.	.	.	.	.	.	.	.	.	.	.	8a#X\	-te,	.	.	.
*tuplet	*	*	*	*	*	*	*tuplet	*	*Xtuplet	*	*	*	*	*	*	*	*	*	*
!	!	!	!	!	!	!	!	!LO:DY:b:t=for	!LO:TX:t=P:problem:brak oznaczenia sekstoli od t.4:global	!	!	!	!	!	!	!	!	!	!
4r	.	.	4r	.	4r	.	4r	f	24gg\LL	.	.	.	.	.	4r	.	.	.	.
!	!	!	!	!	!	!	!	!	!	!LO:DY:b:t=f&colon;	!	!	!	!	!	!	!	!	!
.	.	.	.	.	.	.	.	.	24ff#\	f	.	.	.	.	.	.	.	.	.
.	.	.	.	.	.	.	.	.	24ee\	.	.	.	.	.	.	.	.	.	.
.	.	.	.	.	.	.	.	.	24dd\	.	.	.	.	.	.	.	.	.	.
.	.	.	.	.	.	.	.	.	24cc#\	.	.	.	.	.	.	.	.	.	.
.	.	.	.	.	.	.	.	.	24b\JJ	.	.	.	.	.	.	.	.	.	.
!	!	!	!	!	!	!	!LO:TX:t=P:problem:oznaczenie sekstoli z klamrą łukową	!	!	!	!	!	!	!	!	!	!	!	!
!	!	!	!	!	!	!	!LO:TUP:b	!	!	!	!	!	!	!	!	!	!	!	!
4r	.	.	4r	.	4r	.	24g/LL	.	8a#X\L	.	.	.	.	.	2r	.	.	.	.
.	.	.	.	.	.	.	24f#/	.	.	.	.	.	.	.	.	.	.	.	.
.	.	.	.	.	.	.	24e/	.	.	.	.	.	.	.	.	.	.	.	.
.	.	.	.	.	.	.	24d/	.	(8b\	.	.	.	.	.	.	.	.	.	.
.	.	.	.	.	.	.	24c#/	.	.	.	.	.	.	.	.	.	.	.	.
.	.	.	.	.	.	.	24B/JJ	.	.	.	.	.	.	.	.	.	.	.	.
!LO:TX:t=P:problem:klamra łukowa	!	!LO:DY:b:t=for	!	!LO:DY:b	!	!	!	!	!	!	!	!	!	!	!	!	!	!	!
24G\LL	4 2	f	24G\LL	f	8r	.	8A#X/L	.	8cc#\	.	.	.	.	.	.	.	.	.	.
24F#\	#	.	24F#\	.	.	.	.	.	.	.	.	.	.	.	.	.	.	.	.
24E\	.	.	24E\	.	.	.	.	.	.	.	.	.	.	.	.	.	.	.	.
!	!	!	!	!	!	!LO:DY:b	!	!	!	!	!	!	!	!	!	!	!	!	!
24D\	.	.	24D\	.	8f#\	f	8B/J	.	8dd\J)	.	.	.	.	.	.	.	.	.	.
24C#\	.	.	24C#\	.	.	.	.	.	.	.	.	.	.	.	.	.	.	.	.
24BB\JJ	.	.	24BB\JJ	.	.	.	.	.	.	.	.	.	.	.	.	.	.	.	.
*	*	*	*	*	*	*	*Xtuplet	*	*	*	*	*	*	*	*	*	*	*	*
!	!	!	!	!	!LO:LB:g=original	!	!	!	!	!	!	!	!	!	!	!	!	!	!
=5	=5	=5	=5	=5	=5	=5	=5	=5	=5	=5	=5	=5	=5	=5	=5	=5	=5	=5	=5
!	!	!	!LO:N:vis=2.	!LO:DY:b:t=p&colon;	!LO:TX:t=P:problem:2\right	!	!	!LO:DY:b	!	!	!	!	!	!	!	!	!	!	!
2.AA/	x 6	.	2AA/	p	[<2f#\	.	[2cn/	p	[<2dd#X\	.	1ryy	1ryy	1ryy	1ryy	4r	.	1ryy	1ryy	1ryy
.	4 n	.	.	.	.	.	.	.	.	.	.	.	.	.	4dd#X\	es-	.	.	.
!	!	!	!	!	!	!	!LO:LB:g=original	!	!	!	!	!	!	!	!	!	!	!	!
!	!	!	!	!	!	!	!LO:TX:t=P:problem:brak zakończenia ligatury	!	!LO:TX:t=P:problem:	!	!	!	!	!	!	!	!	!	!
.	.	.	4r	.	4f#\]	.	4cn/]	.	4dd#X\]	.	.	.	.	.	8ff#\	-to-	.	.	.
.	.	.	.	.	.	.	.	.	.	.	.	.	.	.	16a\	-te	.	.	.
.	.	.	.	.	.	.	.	.	.	.	.	.	.	.	16a\	pa-	.	.	.
4D#X/	4	.	4D#X/	.	4r	.	4r	.	4r	.	.	.	.	.	8ccn\	-ra-	.	.	.
.	n	.	.	.	.	.	.	.	.	.	.	.	.	.	8b\	-ti	.	.	.
!LO:PB:g=original	!	!	!LO:PB:g=original	!	!	!	!	!	!	!	!	!	!	!	!LO:LB:g=original	!	!	!	!
=6	=6	=6	=6	=6	=6	=6	=6	=6	=6	=6	=6	=6	=6	=6	=6	=6	=6	=6	=6
4E\	.	.	4E\	.	2r	.	2r	.	4r	.	1ryy	1ryy	1ryy	1ryy	16a\	ju-	1ryy	1ryy	1ryy
.	.	.	.	.	.	.	.	.	.	.	.	.	.	.	16g\	-gi-	.	.	.
.	.	.	.	.	.	.	.	.	.	.	.	.	.	.	8g\	-ter	.	.	.
!	!	!	!	!	!	!	!	!	!LO:TX:t=P:problem:mixed beam	!	!	!	!	!	!	!	!	!	!
4r	.	.	4r	.	.	.	.	.	24e/LL	.	.	.	.	.	4r	.	.	.	.
.	.	.	.	.	.	.	.	.	24bb\	.	.	.	.	.	.	.	.	.	.
!	!	!	!	!	!	!	!	!	!	!LO:DY:b:t=for&colon;	!	!	!	!	!	!	!	!	!
.	.	.	.	.	.	.	.	.	(24aa\	f	.	.	.	.	.	.	.	.	.
.	.	.	.	.	.	.	.	.	24gg\	.	.	.	.	.	.	.	.	.	.
.	.	.	.	.	.	.	.	.	24ff#\	.	.	.	.	.	.	.	.	.	.
.	.	.	.	.	.	.	.	.	24ee\JJ)	.	.	.	.	.	.	.	.	.	.
!	!	!	!	!	!	!	!	!LO:DY:b:t=for	!	!	!	!	!	!	!	!	!	!	!
4r	.	.	4r	.	4r	.	24B/LL	f	8dd#X\L	.	.	.	.	.	2r	.	.	.	.
.	.	.	.	.	.	.	24b/	.	.	.	.	.	.	.	.	.	.	.	.
.	.	.	.	.	.	.	(24a/	.	.	.	.	.	.	.	.	.	.	.	.
.	.	.	.	.	.	.	24g/	.	8ee\	.	.	.	.	.	.	.	.	.	.
.	.	.	.	.	.	.	24f#/)	.	.	.	.	.	.	.	.	.	.	.	.
.	.	.	.	.	.	.	24e/JJ	.	.	.	.	.	.	.	.	.	.	.	.
!LO:TX:t=P:problem:mixed beam	!	!LO:DY:b:t=for	!LO:TX:t=P:problem:mixed beam	!	!	!LO:DY:b:t=for	!	!	!	!	!	!	!	!	!	!	!	!	!
24BB/LL	#	f	24BB/LL	.	8B/L	f	(8d#X/L	.	8ff#\	.	.	.	.	.	.	.	.	.	.
24B\	.	.	24B\	.	.	.	.	.	.	.	.	.	.	.	.	.	.	.	.
!LO:TX:t=P:problem:klamra łukowa	!	!	!	!LO:DY:b	!	!	!	!	!	!	!	!	!	!	!	!	!	!	!
24A\	.	.	(24A\	f	.	.	.	.	.	.	.	.	.	.	.	.	.	.	.
24G\	.	.	24G\	.	8B/J	.	8e/J)	.	8gg\J	.	.	.	.	.	.	.	.	.	.
24F#\	.	.	24F#\	.	.	.	.	.	.	.	.	.	.	.	.	.	.	.	.
24E\JJ	.	.	24E\JJ)	.	.	.	.	.	.	.	.	.	.	.	.	.	.	.	.
!	!	!	!	!	!LO:LB:g=original	!	!	!	!	!	!	!	!	!	!	!	!	!	!
=7	=7	=7	=7	=7	=7	=7	=7	=7	=7	=7	=7	=7	=7	=7	=7	=7	=7	=7	=7
!	!	!	!	!	!	!LO:DY:b:t=p&colon;	!LO:TX:t=P:problem:brak początku ligatury	!LO:DY:b:t=p&colon;	!	!LO:DY:b:t=p&colon;	!	!	!	!	!	!	!	!	!
1Dn	4 n	.	1Dn	.	[1B	p	[2e#X/	p	[<2gg#X\	p	1ryy	1ryy	1ryy	1ryy	4b\	et	1ryy	1ryy	1ryy
.	.	.	.	.	.	.	.	.	.	.	.	.	.	.	8b\	Spon-	.	.	.
.	.	.	.	.	.	.	.	.	.	.	.	.	.	.	16b\	-so	.	.	.
.	.	.	.	.	.	.	.	.	.	.	.	.	.	.	16b\	fe-	.	.	.
!	!	!	!	!	!	!	!LO:LB:g=original	!	!LO:LB:g=original	!	!	!	!	!	!LO:LB:g=original	!	!	!	!
.	.	.	.	.	.	.	2e#X/_	.	2gg#X\_<	.	.	.	.	.	8dd\	-li-	.	.	.
.	.	.	.	.	.	.	.	.	.	.	.	.	.	.	16b\	-ces	.	.	.
.	.	.	.	.	.	.	.	.	.	.	.	.	.	.	16b\	oc-	.	.	.
.	.	.	.	.	.	.	.	.	.	.	.	.	.	.	16a\	-cu-	.	.	.
.	.	.	.	.	.	.	.	.	.	.	.	.	.	.	16g#X\	-rri-	.	.	.
.	.	.	.	.	.	.	.	.	.	.	.	.	.	.	8g#\	-te	.	.	.
!LO:LB:g=original	!	!	!LO:LB:g=original	!	!	!	!	!	!	!	!	!	!	!	!	!	!	!	!
=8	=8	=8	=8	=8	=8	=8	=8	=8	=8	=8	=8	=8	=8	=8	=8	=8	=8	=8	=8
2C#/	4 #	.	2C#/	.	2B/]	.	2e#/]	.	2gg#\]	.	1ryy	1ryy	1ryy	1ryy	4r	.	1ryy	1ryy	1ryy
.	.	.	.	.	.	.	.	.	.	.	.	.	.	.	8b\	vox	.	.	.
.	.	.	.	.	.	.	.	.	.	.	.	.	.	.	8a\	jam	.	.	.
!	!	!	!	!	!	!	!	!	!	!	!	!	!	!	!LO:LB:g=original	!	!	!	!
4F#\	.	.	4F#\	.	4A/	.	4f#/	.	4ff#\	.	.	.	.	.	16g#X/	re-	.	.	.
.	.	.	.	.	.	.	.	.	.	.	.	.	.	.	16f#/	-so-	.	.	.
.	.	.	.	.	.	.	.	.	.	.	.	.	.	.	8f#/	-nat	.	.	.
!	!	!LO:DY:b:t=for	!	!LO:DY:b:t=for	!LO:TX:t=P:problem:mixed beam	!LO:DY:b:t=f&colon;	!	!	!	!	!	!	!	!	!	!	!	!	!
8F#\L	5	f	8F#\L	f	8A/L	f	24aa\LL	.	24aa\LL	.	.	.	.	.	4r	.	.	.	.
!	!	!	!	!	!	!	!	!LO:DY:b:t=for	!	!LO:DY:b:t=f&colon;	!	!	!	!	!	!	!	!	!
.	.	.	.	.	.	.	24gg#X\	f	24gg#X\	f	.	.	.	.	.	.	.	.	.
.	.	.	.	.	.	.	24ff#\	.	24ff#\	.	.	.	.	.	.	.	.	.	.
8F#\J	6	.	8F#\J	.	8a\J	.	24ff#\	.	(24ff#\	.	.	.	.	.	.	.	.	.	.
.	.	.	.	.	.	.	24ee\	.	24ee\	.	.	.	.	.	.	.	.	.	.
.	.	.	.	.	.	.	24dd\JJ	.	24ddn\JJ)	.	.	.	.	.	.	.	.	.	.
=9	=9	=9	=9	=9	=9	=9	=9	=9	=9	=9	=9	=9	=9	=9	=9	=9	=9	=9	=9
!	!	!LO:DY:b:t=p&colon;	!	!LO:DY:b:t=pia	!	!LO:DY:b:t=p&colon;	!	!LO:DY:b:t=p&colon;	!LO:TX:t=P:problem:brak początku ligatury	!LO:DY:b:t=p&colon;	!	!	!	!	!	!	!	!	!
1G#X	5	p	1G#X	p	1b	p	1dd	p	[<2dd\	p	1ryy	1ryy	1ryy	1ryy	4r	.	1ryy	1ryy	1ryy
.	.	.	.	.	.	.	.	.	.	.	.	.	.	.	4b\	ad	.	.	.
!	!	!	!	!	!	!	!	!	!LO:LB:g=original	!	!	!	!	!	!	!	!	!	!
.	.	.	.	.	.	.	.	.	2dd\]	.	.	.	.	.	8b\	nu-	.	.	.
.	.	.	.	.	.	.	.	.	.	.	.	.	.	.	8b\	-pti-	.	.	.
.	.	.	.	.	.	.	.	.	.	.	.	.	.	.	8cc#\	-as	.	.	.
.	.	.	.	.	.	.	.	.	.	.	.	.	.	.	8dd\	in-	.	.	.
!LO:LB:g=original	!	!	!LO:LB:g=original	!	!	!	!LO:LB:g=original	!	!	!	!	!	!	!	!LO:PB:g=original	!	!	!	!
=10	=10	=10	=10	=10	=10	=10	=10	=10	=10	=10	=10	=10	=10	=10	=10	=10	=10	=10	=10
4A\	.	.	4A\	.	4a\	.	4cc#\	.	4cc#\	.	1ryy	1ryy	1ryy	1ryy	8dd\	-vi-	1ryy	1ryy	1ryy
.	.	.	.	.	.	.	.	.	.	.	.	.	.	.	8dd\	-ta-	.	.	.
8AA/L	.	.	8AA/L	.	8c#\L	.	24aa\LL	.	24aa\LL	.	.	.	.	.	8cc#\	-ti	.	.	.
.	.	.	.	.	.	.	24ee\	.	24ee\	.	.	.	.	.	.	.	.	.	.
!	!	!	!	!	!	!	!	!	!	!LO:DY:b:t=f&colon;	!	!	!	!	!	!	!	!	!
.	.	.	.	.	.	.	24dd\	.	24dd\	f	.	.	.	.	.	.	.	.	.
!	!	!	!	!	!	!	!	!	!	!	!	!	!	!	!LO:N:vis=4	!	!	!	!
8AA/J	.	.	8AA/J	.	8e\J	.	24cc#\	.	(24cc#\	.	.	.	.	.	8r	.	.	.	.
.	.	.	.	.	.	.	24b\	.	24b\	.	.	.	.	.	.	.	.	.	.
.	.	.	.	.	.	.	24a\JJ	.	24a\JJ)	.	.	.	.	.	.	.	.	.	.
!	!	!LO:DY:b:t=f&colon;	!	!LO:DY:b:t=f&colon;	!	!	!	!	!	!	!	!	!	!	!	!	!	!	!
[2D/	.	f	[2D/	f	4d\	.	4d/ 4a 4ff#	.	4d/ 4a 4ff#	.	.	.	.	.	4r	.	.	.	.
.	.	.	.	.	4r	.	4r	.	4r	.	.	.	.	.	4ff#\	huc	.	.	.
=11	=11	=11	=11	=11	=11	=11	=11	=11	=11	=11	=11	=11	=11	=11	=11	=11	=11	=11	=11
2D/]	.	.	2D/]	.	2r	.	2r	.	2r	.	1ryy	1ryy	1ryy	1ryy	8r	.	1ryy	1ryy	1ryy
.	.	.	.	.	.	.	.	.	.	.	.	.	.	.	8ff#\	jam	.	.	.
.	.	.	.	.	.	.	.	.	.	.	.	.	.	.	8dd\	pro-	.	.	.
.	.	.	.	.	.	.	.	.	.	.	.	.	.	.	8cc#\	-pe-	.	.	.
!LO:LB:g=original	!	!	!LO:LB:g=original	!	!LO:LB:g=original	!	!	!	!	!	!	!	!	!	!	!	!	!	!
4r	.	.	4r	.	4r	.	4r	.	4r	.	.	.	.	.	16b\	-ra-	.	.	.
.	.	.	.	.	.	.	.	.	.	.	.	.	.	.	16a\	.	.	.	.
.	.	.	.	.	.	.	.	.	.	.	.	.	.	.	8a\	-te	.	.	.
!	!	!	!	!	!	!LO:DY:b	!	!LO:DY:b:t=for	!	!LO:DY:b:t=f&colon;	!	!	!	!	!	!	!	!	!
4E\	#	.	4E\	.	4e\	f	4e/ 4b 4gg#X	f	4e/ 4b 4gg#X	f	.	.	.	.	4r	.	.	.	.
=12	=12	=12	=12	=12	=12	=12	=12	=12	=12	=12	=12	=12	=12	=12	=12	=12	=12	=12	=12
4AA/	.	.	4AA/	.	4e\	.	4e/ 4cc# 4aa	.	4e/ 4cc# 4aa	.	1ryy	1ryy	1ryy	1ryy	1r	.	1ryy	1ryy	1ryy
4r	.	.	4r	.	4r	.	4r	.	4r	.	.	.	.	.	.	.	.	.	.
!LO:TX:b:t=Sieque Adagio.	!	!	!LO:TX:b:t=Sieq Adagio.	!	!LO:TX:b:t=Sieq Adagio.	!	!LO:TX:b:t=Sieq Adagio	!	!	!	!	!	!	!	!	!	!	!	!
2r	.	.	2r	.	2r	.	2r	.	2r	.	.	.	.	.	.	.	.	.	.
==	==	==	==	==	==	==	==	==	==	==	==	==	==	==	==	==	==	==	==
*-	*-	*-	*-	*-	*-	*-	*-	*-	*-	*-	*-	*-	*-	*-	*-	*-	*-	*-	*-
!!!system-decoration: [(g1)][(g2)][(g3)][(g4)][(g5)]
!!!RDF**kern: >= above
!!!RDF**kern: <= below
!!!ENC:Anna Matuszewska
!!!END:2021-01-04
!!!ENC:Andrzej Borzym
!!!END:2021-01-02
